assets/images/hamburger.svg

<?xml version="1.0" encoding="UTF-8"?>
<svg width="24px" height="20px" viewBox="0 0 24 20" version="1.1" xmlns="http://www.w3.org/2000/svg" xmlns:xlink="http://www.w3.org/1999/xlink">
    <!-- Generator: Sketch 50.2 (55047) - http://www.bohemiancoding.com/sketch -->
    <title>Shape</title>
    <desc>Created with Sketch.</desc>
    <defs></defs>
    <g id="Page-1" stroke="none" stroke-width="1" fill="none" fill-rule="evenodd">
        <g id="bars" fill="#FFFFFF" fill-rule="nonzero">
            <path d="M23.3571429,2.9787234 L0.642857143,2.9787234 C0.287839286,2.9787234 0,2.69292553 0,2.34042553 L0,0.638297872 C0,0.285797872 0.287839286,0 0.642857143,0 L23.3571429,0 C23.7121607,0 24,0.285797872 24,0.638297872 L24,2.34042553 C24,2.69292553 23.7121607,2.9787234 23.3571429,2.9787234 Z M23.3571429,11.4893617 L0.642857143,11.4893617 C0.287839286,11.4893617 0,11.2035638 0,10.8510638 L0,9.14893617 C0,8.79643617 0.287839286,8.5106383 0.642857143,8.5106383 L23.3571429,8.5106383 C23.7121607,8.5106383 24,8.79643617 24,9.14893617 L24,10.8510638 C24,11.2035638 23.7121607,11.4893617 23.3571429,11.4893617 Z M23.3571429,20 L0.642857143,20 C0.287839286,20 0,19.7142021 0,19.3617021 L0,17.6595745 C0,17.3070745 0.287839286,17.0212766 0.642857143,17.0212766 L23.3571429,17.0212766 C23.7121607,17.0212766 24,17.3070745 24,17.6595745 L24,19.3617021 C24,19.7142021 23.7121607,20 23.3571429,20 Z" id="Shape"></path>
        </g>
    </g>
</svg>

<?xml version="1.0" encoding="UTF-8"?>
<svg version="1.1" viewBox="0 0 24 20" xmlns="http://www.w3.org/2000/svg">
<title>Shape</title>
<desc>Created with Sketch.</desc>
<g fill="none" fill-rule="evenodd">
<g fill="#fff" fill-rule="nonzero">
<path d="m23.357 2.9787h-22.714c-0.35502 0-0.64286-0.2858-0.64286-0.6383v-1.7021c0-0.3525 0.28784-0.6383 0.64286-0.6383h22.714c0.35502 0 0.64286 0.2858 0.64286 0.6383v1.7021c0 0.3525-0.28784 0.6383-0.64286 0.6383zm0 8.5106h-22.714c-0.35502 0-0.64286-0.2858-0.64286-0.6383v-1.7021c0-0.3525 0.28784-0.6383 0.64286-0.6383h22.714c0.35502 0 0.64286 0.2858 0.64286 0.6383v1.7021c0 0.3525-0.28784 0.6383-0.64286 0.6383zm0 8.5106h-22.714c-0.35502 0-0.64286-0.2858-0.64286-0.6383v-1.7021c0-0.3525 0.28784-0.6383 0.64286-0.6383h22.714c0.35502 0 0.64286 0.2858 0.64286 0.6383v1.7021c0 0.3525-0.28784 0.6383-0.64286 0.6383z"/>
</g>
</g>
</svg>
